suite-common/icons/assets/icons/tokens.svg

<svg xmlns="http://www.w3.org/2000/svg" fill="none" viewBox="0 0 16 16">
  <path fill="#000" fill-rule="evenodd" d="M5.147 2.282c-.052.006-.226.024-.387.039C2.525 2.539.769 3.463.359 4.638.246 4.96.236 5.145.246 6.64c.01 1.354.012 1.406.07 1.596.143.473.452.887.937 1.255.68.517 1.741.924 2.881 1.107l.095.016.029.273c.017.155.059.358.099.47.311.883 1.344 1.621 2.856 2.039.856.237 1.732.345 2.787.345.674 0 1.061-.025 1.6-.103 2.131-.309 3.654-1.167 4.041-2.276.112-.322.123-.508.113-2.002-.011-1.536-.009-1.519-.182-1.89-.203-.436-.64-.882-1.185-1.208-.631-.378-1.504-.685-2.372-.835a3 3 0 0 1-.242-.047 8 8 0 0 1-.032-.273c-.065-.608-.365-1.109-.924-1.545-.812-.632-1.949-1.038-3.453-1.232-.293-.038-1.979-.074-2.217-.048m2.078 1.543c1.335.177 2.357.566 2.835 1.078.07.074.139.167.154.205.067.176.002.35-.205.549-.507.486-1.512.852-2.822 1.028-.493.066-1.881.066-2.374 0-1.299-.174-2.302-.536-2.806-1.014-.223-.21-.29-.382-.22-.564.037-.099.28-.349.453-.467.349-.237.912-.473 1.453-.61.517-.13.83-.18 1.6-.254.254-.025 1.643.01 1.932.049m5.085 3.203c1.037.263 1.93.82 1.93 1.204 0 .333-.509.741-1.283 1.031a7.8 7.8 0 0 1-2.239.457c-.253.013-.296.01-.255-.019q.806-.56 1.093-1.132c.149-.296.182-.483.197-1.096l.014-.568.096.018c.053.009.255.056.447.105m-9.748.661c.141.052.354.123.474.156l.217.061v.46c0 .282-.01.461-.026.461-.051 0-.376-.133-.61-.249-.394-.196-.646-.39-.781-.603-.07-.11-.076-.139-.076-.378v-.26l.273.128c.151.071.389.172.529.224m7.637.232c-.109.212-.413.457-.816.657-.235.117-.559.249-.611.249-.017 0-.024-.165-.019-.457l.007-.456.387-.127c.364-.12.732-.268.973-.393l.107-.055.007.25c.006.188-.003.27-.035.332M6 8.227c.418 0 .871-.009 1.007-.02l.246-.02v.982l-.1.016a10 10 0 0 1-2.306 0l-.1-.016v-.982l.246.02c.136.011.589.02 1.007.02m8.24 2.358c0 .131-.012.27-.027.309-.044.116-.314.377-.539.522a5.6 5.6 0 0 1-.867.409l-.06.019v-.93l.313-.1a7.5 7.5 0 0 0 .989-.387 1.3 1.3 0 0 1 .171-.079c.011-.001.02.106.02.237m-7.436.188c.079.028.212.071.296.095l.153.042v.934l-.06-.019a5.6 5.6 0 0 1-.867-.409c-.225-.145-.495-.406-.539-.522-.056-.148-.063-.145.42-.154.245-.004.448-.011.451-.014a1 1 0 0 1 .146.047m4.443 1.401a7 7 0 0 1-.404.04c-.405.034-1.672.02-1.95-.021l-.133-.02-.007-.488-.008-.488.341.022c.425.026 1.655.02 1.941-.01l.213-.022.007.49c.004.27.004.494 0 .497"/>
</svg>

<svg xmlns="http://www.w3.org/2000/svg" fill="none" viewBox="0 0 16 16"><path d="M5.147 2.282 C 5.095 2.288,4.921 2.306,4.760 2.321 C 2.525 2.539,0.769 3.463,0.359 4.638 C 0.246 4.960,0.236 5.145,0.246 6.640 C 0.256 7.994,0.258 8.046,0.316 8.236 C 0.459 8.709,0.768 9.123,1.253 9.491 C 1.933 10.008,2.994 10.415,4.134 10.598 L 4.229 10.614 4.258 10.887 C 4.275 11.042,4.317 11.245,4.357 11.357 C 4.668 12.240,5.701 12.978,7.213 13.396 C 8.069 13.633,8.945 13.741,10.000 13.741 C 10.674 13.741,11.061 13.716,11.600 13.638 C 13.731 13.329,15.254 12.471,15.641 11.362 C 15.753 11.040,15.764 10.854,15.754 9.360 C 15.743 7.824,15.745 7.841,15.572 7.470 C 15.369 7.034,14.932 6.588,14.387 6.262 C 13.756 5.884,12.883 5.577,12.015 5.427 C 11.884 5.405,11.776 5.383,11.773 5.380 C 11.771 5.376,11.757 5.253,11.741 5.107 C 11.676 4.499,11.376 3.998,10.817 3.562 C 10.005 2.930,8.868 2.524,7.364 2.330 C 7.071 2.292,5.385 2.256,5.147 2.282 M7.225 3.825 C 8.560 4.002,9.582 4.391,10.060 4.903 C 10.130 4.977,10.199 5.070,10.214 5.108 C 10.281 5.284,10.216 5.458,10.009 5.657 C 9.502 6.143,8.497 6.509,7.187 6.685 C 6.694 6.751,5.306 6.751,4.813 6.685 C 3.514 6.511,2.511 6.149,2.007 5.671 C 1.784 5.461,1.717 5.289,1.787 5.107 C 1.824 5.008,2.067 4.758,2.240 4.640 C 2.589 4.403,3.152 4.167,3.693 4.030 C 4.210 3.900,4.523 3.850,5.293 3.776 C 5.547 3.751,6.936 3.786,7.225 3.825 M12.310 7.028 C 13.347 7.291,14.240 7.848,14.240 8.232 C 14.240 8.565,13.731 8.973,12.957 9.263 C 12.278 9.516,11.458 9.684,10.718 9.720 C 10.465 9.733,10.422 9.730,10.463 9.701 C 11.001 9.327,11.364 8.952,11.556 8.569 C 11.705 8.273,11.738 8.086,11.753 7.473 L 11.767 6.905 11.863 6.923 C 11.916 6.932,12.118 6.979,12.310 7.028 M2.562 7.689 C 2.703 7.741,2.916 7.812,3.036 7.845 L 3.253 7.906 3.253 8.366 C 3.253 8.648,3.243 8.827,3.227 8.827 C 3.176 8.827,2.851 8.694,2.617 8.578 C 2.223 8.382,1.971 8.188,1.836 7.975 C 1.766 7.865,1.760 7.836,1.760 7.597 L 1.760 7.337 2.033 7.465 C 2.184 7.536,2.422 7.637,2.562 7.689 M10.199 7.921 C 10.090 8.133,9.786 8.378,9.383 8.578 C 9.148 8.695,8.824 8.827,8.772 8.827 C 8.755 8.827,8.748 8.662,8.753 8.370 L 8.760 7.914 9.147 7.787 C 9.511 7.667,9.879 7.519,10.120 7.394 L 10.227 7.339 10.234 7.589 C 10.240 7.777,10.231 7.859,10.199 7.921 M6.000 8.227 C 6.418 8.227,6.871 8.218,7.007 8.207 L 7.253 8.187 7.253 8.678 L 7.253 9.169 7.153 9.185 C 6.947 9.219,6.373 9.252,6.000 9.252 C 5.627 9.252,5.053 9.219,4.847 9.185 L 4.747 9.169 4.747 8.678 L 4.747 8.187 4.993 8.207 C 5.129 8.218,5.582 8.227,6.000 8.227 M14.240 10.585 C 14.240 10.716,14.228 10.855,14.213 10.894 C 14.169 11.010,13.899 11.271,13.674 11.416 C 13.492 11.532,12.998 11.765,12.807 11.825 L 12.747 11.844 12.747 11.379 L 12.747 10.914 13.060 10.814 C 13.430 10.696,13.838 10.536,14.049 10.427 C 14.132 10.384,14.209 10.349,14.220 10.348 C 14.231 10.347,14.240 10.454,14.240 10.585 M6.804 10.773 C 6.883 10.801,7.016 10.844,7.100 10.868 L 7.253 10.910 7.253 11.377 L 7.253 11.844 7.193 11.825 C 7.002 11.765,6.508 11.532,6.326 11.416 C 6.101 11.271,5.831 11.010,5.787 10.894 C 5.731 10.746,5.724 10.749,6.207 10.740 C 6.452 10.736,6.655 10.729,6.658 10.726 C 6.660 10.723,6.726 10.744,6.804 10.773 M11.247 12.174 C 11.243 12.178,11.061 12.196,10.843 12.214 C 10.438 12.248,9.171 12.234,8.893 12.193 L 8.760 12.173 8.753 11.685 L 8.745 11.197 9.086 11.219 C 9.511 11.245,10.741 11.239,11.027 11.209 L 11.240 11.187 11.247 11.677 C 11.251 11.947,11.251 12.171,11.247 12.174 " stroke="none" fill-rule="evenodd" fill="black"></path></svg>
